Mindful/img/creativity.svg

<svg width="161" height="150" viewBox="0 0 161 150" fill="none" xmlns="http://www.w3.org/2000/svg">
<path d="M125.853 114.228C118.96 107.701 109.77 104.037 99.9726 103.904C99.7879 103.899 99.6031 103.897 99.4195 103.897H62.1984C62.0136 103.897 61.8301 103.899 61.6453 103.904C51.8463 104.036 42.6578 107.701 35.765 114.228C28.8538 120.773 25.047 129.443 25.047 138.643V145.578C25.047 148.02 27.1639 150 29.7752 150H131.843C134.454 150 136.571 148.02 136.571 145.578V138.643C136.571 129.443 132.764 120.773 125.853 114.228Z" fill="#FF8C05"/>
<path d="M125.853 114.228C118.96 107.701 109.77 104.037 99.9726 103.904C99.7878 103.899 99.6031 103.897 99.4195 103.897H81.1663V150H131.843C134.454 150 136.571 148.02 136.571 145.578V138.643C136.571 129.443 132.764 120.773 125.853 114.228Z" fill="#FF6633"/>
<path d="M100.046 103.907C99.942 103.903 99.8441 103.9 93.3159 103.897V99.21C93.3159 96.7678 91.199 94.788 88.5877 94.788H73.6836C71.0735 94.788 68.9566 96.7678 68.9566 99.21V103.897C62.4039 103.9 61.6746 103.903 61.5719 103.907C59.0364 104.002 57.0333 105.953 57.0333 108.326C57.0382 120.583 67.7024 127.607 80.8089 127.607C93.9143 127.607 104.58 120.583 104.583 108.326C104.585 105.953 102.581 104.002 100.046 103.907Z" fill="#FFD3B3"/>
<path d="M100.046 103.907C99.942 103.903 99.8441 103.9 93.3159 103.897V99.21C93.3159 96.7678 91.199 94.788 88.5877 94.788H81.1663V127.6C94.1076 127.473 104.58 120.471 104.583 108.326C104.585 105.953 102.581 104.002 100.046 103.907Z" fill="#FFB387"/>
<path d="M101.893 69.1932C101.554 67.8084 100.523 66.6606 99.1235 66.109C97.7236 65.5562 96.1255 65.6661 94.8272 66.4042C92.6834 67.6242 90.3548 68.2422 87.9074 68.2422H63.9458C61.4716 68.2422 59.4159 70.0263 59.2311 72.3346C59.1944 72.7832 59.176 73.2547 59.176 73.7342V81.6317C59.176 89.313 63.7329 96.2356 71.0663 99.6985C74.1046 101.135 77.3828 101.864 80.809 101.864C84.2707 101.864 87.7129 101.08 90.7635 99.5978C97.9671 96.1017 102.442 89.218 102.442 81.6317V73.7342C102.441 72.2052 102.257 70.6775 101.893 69.1932Z" fill="#FFE4C2"/>
<path d="M101.893 69.1932C101.554 67.8084 100.523 66.6606 99.1234 66.109C97.7235 65.5562 96.1254 65.6661 94.8271 66.4042C92.6833 67.6242 90.3547 68.2422 87.9074 68.2422H81.1663V101.858C84.5068 101.807 87.8181 101.028 90.7634 99.5978C97.967 96.1017 102.442 89.218 102.442 81.6317V73.7342C102.441 72.2052 102.257 70.6775 101.893 69.1932Z" fill="#FFD3B3"/>
<path d="M111.975 50.1274C111.867 48.8719 110.748 47.9015 109.401 47.9015H83.3395C68.5137 47.9015 56.7445 61.4925 59.4097 77.0862H87.7618C91.9087 77.0862 96.0007 76.0047 99.5909 73.9631C107.913 69.2424 112.827 59.935 111.975 50.1274Z" fill="#6D4432"/>
<path d="M111.975 50.1274C111.867 48.8719 110.748 47.9015 109.401 47.9015H83.3395C82.6065 47.9015 81.8821 47.937 81.1663 48.0011V77.0862H87.7618C91.9087 77.0862 96.0006 76.0047 99.5908 73.9631C107.913 69.2424 112.827 59.935 111.975 50.1274Z" fill="#59311F"/>
<path d="M64.062 16.6466C64.062 7.86444 71.9105 0.71875 81.5591 0.71875C91.2076 0.71875 99.0598 7.86444 99.0598 16.6466C99.0598 21.5836 96.5599 26.1738 92.3835 29.163V40.1734C92.3835 42.6144 90.269 44.5954 87.6553 44.5954H74.4582C71.8481 44.5954 69.73 42.6144 69.73 40.1734V28.3848C66.1398 25.3922 64.062 21.1568 64.062 16.6466Z" fill="#FF9B32"/>
<path d="M69.73 28.3848V40.1733C69.73 42.6143 71.8481 44.5953 74.4582 44.5953H81.0574V0.730103C71.6401 0.973862 64.062 8.0177 64.062 16.6465C64.062 21.1567 66.1398 25.3921 69.73 28.3848Z" fill="#FFC364"/>
<path d="M69.73 40.1733V35.923H92.3835V40.1733C92.3835 42.6143 90.269 44.5953 87.6553 44.5953H74.4582C71.8481 44.5953 69.73 42.6143 69.73 40.1733Z" fill="#8BC8E8"/>
<path d="M74.4582 44.5953H81.0574V35.923H69.73V40.1733C69.73 42.6143 71.8481 44.5953 74.4582 44.5953Z" fill="#BAE5E5"/>
<path d="M109.022 0C111.022 0 112.881 1.19705 113.523 3.07503C114.319 5.40047 112.948 7.88956 110.462 8.63457L105.659 10.0719C103.17 10.817 100.51 9.53407 99.7144 7.20863C98.9178 4.88319 100.288 2.3941 102.776 1.64909L107.579 0.211716C108.057 0.0686646 108.543 0 109.022 0V0Z" fill="#8BC8E8"/>
<path d="M106.303 17.5151C106.78 17.5151 107.266 17.5838 107.744 17.7269L112.547 19.1642C115.035 19.9092 116.405 22.3983 115.608 24.7238C114.813 27.0504 112.15 28.3321 109.664 27.5871L104.861 26.1497C102.375 25.4047 101.004 22.9156 101.8 20.5902C102.443 18.7122 104.302 17.5151 106.303 17.5151Z" fill="#8BC8E8"/>
<path d="M53.2021 0C53.6793 0 54.1651 0.0686646 54.6448 0.211716L59.4476 1.64909C61.9341 2.3941 63.3046 4.88319 62.5092 7.20863C61.7126 9.53522 59.0512 10.817 56.5647 10.0719L51.7619 8.63457C49.2754 7.88956 47.9049 5.40047 48.7003 3.07503C49.3427 1.19705 51.2014 0 53.2021 0Z" fill="#BAE5E5"/>
<path d="M55.9211 17.5151C57.9218 17.5151 59.7805 18.7122 60.4229 20.5902C61.2183 22.9156 59.8478 25.4047 57.3613 26.1497L52.5585 27.5871C50.072 28.3309 47.4106 27.0504 46.614 24.7238C45.8186 22.3983 47.1891 19.9092 49.6756 19.1642L54.4784 17.7269C54.9581 17.5838 55.4439 17.5151 55.9211 17.5151Z" fill="#BAE5E5"/>
</svg>

<svg width="161" height="150" fill="none" xmlns="http://www.w3.org/2000/svg"><path d="M125.853 114.228c-6.893-6.527-16.083-10.191-25.88-10.324-.185-.005-.37-.007-.553-.007H62.197a20.4 20.4 0 00-.553.007c-9.799.132-18.987 3.797-25.88 10.324-6.911 6.545-10.718 15.215-10.718 24.415v6.935c0 2.442 2.117 4.422 4.728 4.422h102.068c2.611 0 4.728-1.98 4.728-4.422v-6.935c0-9.2-3.807-17.87-10.718-24.415z" fill="#FF8C05"/><path d="M125.853 114.228c-6.893-6.527-16.083-10.191-25.88-10.324-.185-.005-.37-.007-.553-.007H81.165V150h50.677c2.611 0 4.728-1.98 4.728-4.422v-6.935c0-9.2-3.807-17.87-10.718-24.415z" fill="#F63"/><path d="M100.046 103.907c-.104-.004-.202-.007-6.73-.01V99.21c0-2.442-2.117-4.422-4.728-4.422H73.684c-2.61 0-4.727 1.98-4.727 4.422v4.687c-6.553.003-7.282.006-7.385.01-2.536.095-4.539 2.046-4.539 4.419.005 12.257 10.67 19.281 23.776 19.281 13.105 0 23.771-7.024 23.774-19.281.002-2.373-2.002-4.324-4.537-4.419z" fill="#FFD3B3"/><path d="M100.046 103.907c-.104-.004-.202-.007-6.73-.01V99.21c0-2.442-2.117-4.422-4.728-4.422h-7.422V127.6c12.942-.127 23.414-7.129 23.417-19.274.002-2.373-2.002-4.324-4.537-4.419z" fill="#FFB387"/><path d="M101.893 69.193c-.339-1.385-1.37-2.532-2.77-3.084a5.017 5.017 0 00-4.296.295 13.829 13.829 0 01-6.92 1.838H63.946c-2.474 0-4.53 1.784-4.715 4.093-.037.448-.055.92-.055 1.4v7.897c0 7.681 4.557 14.604 11.89 18.066 3.039 1.437 6.317 2.166 9.743 2.166 3.462 0 6.904-.784 9.954-2.266 7.204-3.496 11.679-10.38 11.679-17.966v-7.898a19.137 19.137 0 00-.549-4.54z" fill="#FFE4C2"/><path d="M101.893 69.193c-.339-1.385-1.37-2.532-2.77-3.084a5.017 5.017 0 00-4.296.295 13.829 13.829 0 01-6.92 1.838h-6.74v33.616c3.34-.051 6.651-.83 9.596-2.26 7.204-3.496 11.679-10.38 11.679-17.966v-7.898a19.137 19.137 0 00-.549-4.54z" fill="#FFD3B3"/><path d="M111.975 50.127c-.108-1.255-1.227-2.226-2.574-2.226H83.34c-14.826 0-26.596 13.591-23.93 29.185h28.352a23.97 23.97 0 0011.829-3.123c8.322-4.72 13.236-14.028 12.384-23.836z" fill="#6D4432"/><path d="M111.975 50.127c-.108-1.255-1.227-2.226-2.574-2.226H83.34c-.734 0-1.458.036-2.174.1v29.085h6.596a23.97 23.97 0 0011.829-3.123c8.322-4.72 13.236-14.028 12.384-23.836z" fill="#59311F"/><path d="M64.062 16.647c0-8.783 7.849-15.928 17.497-15.928 9.649 0 17.5 7.145 17.5 15.928 0 4.937-2.5 9.527-6.675 12.516v11.01c0 2.441-2.115 4.422-4.729 4.422H74.458c-2.61 0-4.728-1.98-4.728-4.422V28.385c-3.59-2.993-5.668-7.228-5.668-11.738z" fill="#FF9B32"/><path d="M69.73 28.385v11.788c0 2.441 2.118 4.422 4.728 4.422h6.6V.73C71.64.974 64.061 8.018 64.061 16.646c0 4.51 2.078 8.746 5.668 11.739z" fill="#FFC364"/><path d="M69.73 40.173v-4.25h22.653v4.25c0 2.441-2.114 4.422-4.728 4.422H74.458c-2.61 0-4.728-1.98-4.728-4.422z" fill="#8BC8E8"/><path d="M74.458 44.595h6.6v-8.672H69.73v4.25c0 2.441 2.118 4.422 4.728 4.422z" fill="#BAE5E5"/><path d="M109.022 0c2 0 3.859 1.197 4.501 3.075.796 2.325-.575 4.815-3.061 5.56l-4.803 1.437c-2.489.745-5.149-.538-5.945-2.863-.796-2.326.574-4.815 3.062-5.56l4.803-1.437A5.03 5.03 0 01109.022 0zm-2.719 17.515c.477 0 .963.069 1.441.212l4.803 1.437c2.488.745 3.858 3.234 3.061 5.56-.795 2.326-3.458 3.608-5.944 2.863l-4.803-1.437c-2.486-.745-3.857-3.234-3.061-5.56.643-1.878 2.502-3.075 4.503-3.075z" fill="#8BC8E8"/><path d="M53.202 0c.477 0 .963.069 1.443.212l4.803 1.437c2.486.745 3.857 3.234 3.061 5.56-.796 2.326-3.458 3.608-5.944 2.863l-4.803-1.437C49.275 7.89 47.905 5.4 48.7 3.075 49.343 1.197 51.201 0 53.202 0zm2.719 17.515c2 0 3.86 1.197 4.502 3.075.795 2.326-.575 4.815-3.062 5.56l-4.802 1.437c-2.487.744-5.148-.537-5.945-2.863-.795-2.326.575-4.815 3.062-5.56l4.802-1.437c.48-.143.966-.212 1.443-.212z" fill="#BAE5E5"/></svg>
